src/assets/dashboard.svg

<svg width="16" height="16" viewBox="0 0 16 16" fill="none" xmlns="http://www.w3.org/2000/svg">
<path d="M7.33333 7.33333H0V2C0 1.46957 0.210714 0.960859 0.585786 0.585786C0.960859 0.210714 1.46957 0 2 0L7.33333 0V7.33333ZM1.33333 6H6V1.33333H2C1.82319 1.33333 1.65362 1.40357 1.5286 1.5286C1.40357 1.65362 1.33333 1.82319 1.33333 2V6Z" fill="#343434"/>
<path d="M15.9999 7.33333H8.66656V0H13.9999C14.5303 0 15.039 0.210714 15.4141 0.585786C15.7892 0.960859 15.9999 1.46957 15.9999 2V7.33333ZM9.9999 6H14.6666V2C14.6666 1.82319 14.5963 1.65362 14.4713 1.5286C14.3463 1.40357 14.1767 1.33333 13.9999 1.33333H9.9999V6Z" fill="#343434"/>
<path d="M7.33333 16H2C1.46957 16 0.960859 15.7893 0.585786 15.4142C0.210714 15.0391 0 14.5304 0 14L0 8.66666H7.33333V16ZM1.33333 9.99999V14C1.33333 14.1768 1.40357 14.3464 1.5286 14.4714C1.65362 14.5964 1.82319 14.6666 2 14.6666H6V9.99999H1.33333Z" fill="#343434"/>
<path d="M13.9999 16H8.66656V8.66666H15.9999V14C15.9999 14.5304 15.7892 15.0391 15.4141 15.4142C15.039 15.7893 14.5303 16 13.9999 16ZM9.9999 14.6666H13.9999C14.1767 14.6666 14.3463 14.5964 14.4713 14.4714C14.5963 14.3464 14.6666 14.1768 14.6666 14V9.99999H9.9999V14.6666Z" fill="#343434"/>
</svg>

<svg width="16" height="16" fill="none" xmlns="http://www.w3.org/2000/svg">
  <path
    d="M7.333 7.333H0V2a2 2 0 012-2h5.333v7.333zM1.333 6H6V1.333H2A.667.667 0 001.333 2v4zM16 7.333H8.667V0H14a2 2 0 012 2v5.333zM10 6h4.667V2A.667.667 0 0014 1.333h-4V6zM7.333 16H2a2 2 0 01-2-2V8.667h7.333V16zm-6-6v4a.667.667 0 00.667.667h4V10H1.333zM14 16H8.667V8.667H16V14a2 2 0 01-2 2zm-4-1.333h4a.667.667 0 00.667-.667v-4H10v4.667z"
    fill="currentColor" />
</svg>
